X:179
T: Bai Raedder
N: Q0071C
O: Mitteleuropa, Deutschland (BRD) , Nordsee, Foehr
N: Ohne Textunterlegung. Phraseneinteilung etwas unklar.
R: Ballade, Verleumdung, Moral, Mord
M: 4/4
L: 1/4
K: G
D | GGGG | GED
D | EEFC | G3
D | GGGG | GED2 | GED2 | GED2
EEFC | G3
